contributed-vectors/emb_three_d.svg

<svg xmlns="http://www.w3.org/2000/svg" xml:space="preserve" style="fill-rule:evenodd;clip-rule:evenodd;stroke-linejoin:round;stroke-miterlimit:2" viewBox="0 0 192 192"><path d="M164.5 21.5c0-5.519-4.481-10-10-10h-133c-5.519 0-10 4.481-10 10v133c0 5.519 4.481 10 10 10h133c5.519 0 10-4.481 10-10v-133Z" style="fill:#fff" transform="translate(8 8)"/><path d="M124.057 28.003 40.751 56.629l51.847 16.423 31.459-3.409 28.044-3.333-28.044-38.307Z" style="fill:#728dbe" transform="matrix(.81349 0 0 .81349 18.558 17.902)"/><path d="M124.057 28.003 40.751 56.629l51.847 16.423 31.459-3.409 28.044-3.333-28.044-38.307Z" style="fill:#728dbe" transform="matrix(.81349 0 0 -.81349 18.558 174.098)"/><path d="M124.057 28.003v136.002l28.044-37.68V66.31l-28.044-38.307Z" style="fill:#9abeff" transform="matrix(.81349 0 0 .81349 18.558 17.902)"/><path d="M.244-.13v-.162h.325v-.126H.244V-.57h.368V-.7H.083V0h.542v-.13H.244Z" style="fill:#4a4a4a;fill-rule:nonzero" transform="matrix(15.56285 0 0 15.56292 56.577 101.35)"/><path d="M.872 0 .87-.7H.737l-.258.435L.217-.7H.083V0h.152v-.411l.205.337h.073L.719-.42.72 0h.152Z" style="fill:#4a4a4a;fill-rule:nonzero" transform="matrix(15.56285 0 0 15.56292 67.02 101.35)"/><path d="M.597-.364A.168.168 0 0 0 .69-.518C.69-.627.6-.7.425-.7H.083V0h.362c.184 0 .28-.07.28-.191a.173.173 0 0 0-.128-.173ZM.405-.578c.079 0 .122.027.122.082 0 .055-.043.083-.122.083H.244v-.165h.161Zm.028.456H.244v-.173h.189c.084 0 .129.028.129.087 0 .06-.045.086-.129.086Z" style="fill:#4a4a4a;fill-rule:nonzero" transform="matrix(15.56285 0 0 15.56292 81.882 101.35)"/><path d="m.366-.415.158-.18V-.7h-.49v.13h.298l-.144.163V-.3h.074c.092 0 .131.033.131.086 0 .057-.05.09-.131.09a.34.34 0 0 1-.2-.063l-.063.124a.481.481 0 0 0 .267.075c.199 0 .29-.108.29-.226 0-.103-.064-.181-.19-.201Z" style="fill:#4a4a4a;fill-rule:nonzero" transform="matrix(15.56285 0 0 15.56292 93.788 101.35)"/><path d="M.083 0h.318C.63 0 .787-.138.787-.35.787-.562.63-.7.401-.7H.083V0Zm.162-.133v-.434h.148c.139 0 .23.083.23.217s-.091.217-.23.217H.245Z" style="fill:#4a4a4a;fill-rule:nonzero" transform="matrix(15.56285 0 0 15.56292 103.001 101.35)"/></svg>

<?xml version="1.0" encoding="UTF-8" standalone="no"?>
<!DOCTYPE svg PUBLIC "-//W3C//DTD SVG 1.1//EN" "http://www.w3.org/Graphics/SVG/1.1/DTD/svg11.dtd">
<svg width="100%" height="100%" viewBox="0 0 192 192" version="1.1" xmlns="http://www.w3.org/2000/svg" xmlns:xlink="http://www.w3.org/1999/xlink" xml:space="preserve" xmlns:serif="http://www.serif.com/" style="fill-rule:evenodd;clip-rule:evenodd;stroke-linejoin:round;stroke-miterlimit:2;">
    <g id="Layer1">
        <g transform="matrix(1,0,0,1,8,8)">
            <path d="M164.5,21.5C164.5,15.981 160.019,11.5 154.5,11.5L21.5,11.5C15.981,11.5 11.5,15.981 11.5,21.5L11.5,154.5C11.5,160.019 15.981,164.5 21.5,164.5L154.5,164.5C160.019,164.5 164.5,160.019 164.5,154.5L164.5,21.5Z" style="fill:white;"/>
        </g>
        <g transform="matrix(0.813489,0,0,0.813489,18.5583,17.9018)">
            <path d="M124.057,28.003L40.751,56.629L92.598,73.052L124.057,69.643L152.101,66.31L124.057,28.003Z" style="fill:rgb(114,141,190);"/>
            <g transform="matrix(1,0,0,-1,0,192.008)">
                <path d="M124.057,28.003L40.751,56.629L92.598,73.052L124.057,69.643L152.101,66.31L124.057,28.003Z" style="fill:rgb(114,141,190);"/>
            </g>
            <path d="M124.057,28.003L124.057,164.005L152.101,126.325L152.101,66.31L124.057,28.003Z" style="fill:rgb(154,190,255);"/>
            <g transform="matrix(1.07123,0,0,0.397728,3.08169,57.5981)">
                <g transform="matrix(17.8589,0,0,48.1009,40.751,113.097)">
                    <path d="M0.244,-0.13L0.244,-0.292L0.569,-0.292L0.569,-0.418L0.244,-0.418L0.244,-0.57L0.612,-0.57L0.612,-0.7L0.083,-0.7L0.083,0L0.625,0L0.625,-0.13L0.244,-0.13Z" style="fill:rgb(74,74,74);fill-rule:nonzero;"/>
                </g>
                <g transform="matrix(17.8589,0,0,48.1009,52.7343,113.097)">
                    <path d="M0.872,0L0.87,-0.7L0.737,-0.7L0.479,-0.265L0.217,-0.7L0.083,-0.7L0.083,0L0.235,0L0.235,-0.411L0.44,-0.074L0.513,-0.074L0.719,-0.42L0.72,0L0.872,0Z" style="fill:rgb(74,74,74);fill-rule:nonzero;"/>
                </g>
                <g transform="matrix(17.8589,0,0,48.1009,69.7896,113.097)">
                    <path d="M0.597,-0.364C0.654,-0.394 0.69,-0.448 0.69,-0.518C0.69,-0.627 0.6,-0.7 0.425,-0.7L0.083,-0.7L0.083,0L0.445,0C0.629,0 0.725,-0.07 0.725,-0.191C0.725,-0.279 0.675,-0.339 0.597,-0.364ZM0.405,-0.578C0.484,-0.578 0.527,-0.551 0.527,-0.496C0.527,-0.441 0.484,-0.413 0.405,-0.413L0.244,-0.413L0.244,-0.578L0.405,-0.578ZM0.433,-0.122L0.244,-0.122L0.244,-0.295L0.433,-0.295C0.517,-0.295 0.562,-0.267 0.562,-0.208C0.562,-0.148 0.517,-0.122 0.433,-0.122Z" style="fill:rgb(74,74,74);fill-rule:nonzero;"/>
                </g>
                <g transform="matrix(17.8589,0,0,48.1009,83.4517,113.097)">
                    <path d="M0.366,-0.415L0.524,-0.595L0.524,-0.7L0.034,-0.7L0.034,-0.57L0.332,-0.57L0.188,-0.407L0.188,-0.3L0.262,-0.3C0.354,-0.3 0.393,-0.267 0.393,-0.214C0.393,-0.157 0.343,-0.124 0.262,-0.124C0.189,-0.124 0.115,-0.147 0.062,-0.187L-0.001,-0.063C0.067,-0.015 0.168,0.012 0.266,0.012C0.465,0.012 0.556,-0.096 0.556,-0.214C0.556,-0.317 0.492,-0.395 0.366,-0.415Z" style="fill:rgb(74,74,74);fill-rule:nonzero;"/>
                </g>
                <g transform="matrix(17.8589,0,0,48.1009,94.0241,113.097)">
                    <path d="M0.083,0L0.401,0C0.63,0 0.787,-0.138 0.787,-0.35C0.787,-0.562 0.63,-0.7 0.401,-0.7L0.083,-0.7L0.083,0ZM0.245,-0.133L0.245,-0.567L0.393,-0.567C0.532,-0.567 0.623,-0.484 0.623,-0.35C0.623,-0.216 0.532,-0.133 0.393,-0.133L0.245,-0.133Z" style="fill:rgb(74,74,74);fill-rule:nonzero;"/>
                </g>
            </g>
        </g>
    </g>
</svg>
